src/svgs/brick-wall.svg

<svg xmlns="http://www.w3.org/2000/svg" viewBox="0 0 24 24" width="512" height="512" aria-labelledby="bnbrick-wall-desc bnbrick-wall-title"><title id="bnbrick-wall-title">Brick Wall Icon</title><desc id="bnbrick-wall-desc">A picture depicting a wall made of bricks.</desc><path d="M6 5H2V1h4zm10-4H8v4h8zM2 11h8V7H2zm10 0h8V7h-8zM22 1h-4v4h4zM6 13H2v4h4zm10 0H8v4h8zM2 23h8v-4H2zm10 0h8v-4h-8zm10-10h-4v4h4z"/></svg>

<svg xmlns="http://www.w3.org/2000/svg" viewBox="0 0 24 24"><path d="M6,5H2V1H6ZM16,1H8V5h8ZM2,11h8V7H2Zm10,0h8V7H12ZM22,1H18V5h4ZM6,13H2v4H6Zm10,0H8v4h8ZM2,23h8V19H2Zm10,0h8V19H12ZM22,13H18v4h4Z"/></svg>
